icons/Percent-Square.svg

<svg width="24" height="24" viewBox="0 0 24 24" fill="none" xmlns="http://www.w3.org/2000/svg">
<g id="Percent-Square">
<path id="Vector" d="M17 3H7C4.79086 3 3 4.79086 3 7V17C3 19.2091 4.79086 21 7 21H17C19.2091 21 21 19.2091 21 17V7C21 4.79086 19.2091 3 17 3Z" stroke="#00153F" stroke-width="1.5" stroke-linecap="round" stroke-linejoin="round"/>
<path id="Vector_2" d="M10 15.62L14.4 8" stroke="#00153F" stroke-width="1.5" stroke-linecap="round" stroke-linejoin="round"/>
<path id="Vector_3" d="M14.2 15.31V15.311" stroke="#00153F" stroke-width="2" stroke-linecap="round" stroke-linejoin="round"/>
<path id="Vector_4" d="M10.2 8.31V8.311" stroke="#00153F" stroke-width="2" stroke-linecap="round" stroke-linejoin="round"/>
</g>
</svg>

<svg xmlns="http://www.w3.org/2000/svg" fill="none" viewBox="0 0 24 24"><g stroke="currentColor" stroke-linecap="round" stroke-linejoin="round"><path stroke-width="1.5" d="M17 3H7a4 4 0 0 0-4 4v10a4 4 0 0 0 4 4h10a4 4 0 0 0 4-4V7a4 4 0 0 0-4-4Zm-7 12.62L14.4 8"/><path stroke-width="2" d="M14.2 15.31v.001m-4-7.001v.001"/></g></svg>
